X: 3038
Q:"Reel."
M: C
L: 1/8
K: G
uB |\
d |\
(BG) (B/c/d) g2(dB) |
cedB cAAc |\
[1 (BG) (B/c/d) g2(dB) | cedc BGG :|\
[2 GDEG DGB,G | EGFA BGG |]


